assets/Tropical fish/Flat/tropical_fish_flat.svg

<svg width="32" height="32" viewBox="0 0 32 32" fill="none" xmlns="http://www.w3.org/2000/svg">
<path d="M3.3908 18.9453C3.80849 18.805 4.10938 18.4103 4.10938 17.9453C4.10938 17.3628 3.63718 16.8906 3.05469 16.8906C2.4722 16.8906 2 17.3628 2 17.9453C2 18.4103 2.30089 18.805 2.71858 18.9453C2.30089 19.0856 2 19.4803 2 19.9453C2 20.5278 2.4722 21 3.05469 21C3.63718 21 4.10938 20.5278 4.10938 19.9453C4.10938 19.4803 3.80849 19.0856 3.3908 18.9453Z" fill="#635994"/>
<path d="M23 7H14.375V30H23C24.6569 30 26 28.6569 26 27V18.9423C26.0019 21.3461 27.4383 23.0937 28.6562 23.0937C29.6313 23.0937 29.9375 22.4062 29.9688 22.0625V16.75C29.9688 15.325 29.6562 15.0938 29.0938 15.0938C27.0992 15.0938 26.1115 17.1073 26 18.4571V10C26 8.34315 24.6569 7 23 7Z" fill="#F9C23C"/>
<path d="M14.5 30C20.8513 30 26 24.8513 26 18.5C26 12.1487 20.8513 7 14.5 7C11.4895 7 8.74914 8.15681 6.69925 10.0502L6.62737 26.8829C8.68486 28.8159 11.4541 30 14.5 30Z" fill="#00A6ED"/>
<path d="M6.62737 26.883C4.39454 24.7852 3 21.8055 3 18.5001C3 15.1594 4.42451 12.1513 6.69925 10.0503C9.13304 12.0329 10.6875 15.0537 10.6875 18.4376C10.6875 21.8547 9.10239 24.9015 6.62737 26.883Z" fill="#8D65C5"/>
<path d="M18 21.4516V15.5778C18 14.9684 17.2753 14.6501 16.8265 15.0623L13.8286 17.8158C13.3932 18.2158 13.3979 18.9041 13.8388 19.298L16.8336 21.9736C17.2847 22.3766 18 22.0564 18 21.4516Z" fill="#F9C23C"/>
<path d="M8.17188 16.5156C8.17188 16.8608 7.89205 17.1406 7.54688 17.1406C7.2017 17.1406 6.92188 16.8608 6.92188 16.5156C6.92188 16.1704 7.2017 15.8906 7.54688 15.8906C7.89205 15.8906 8.17188 16.1704 8.17188 16.5156Z" fill="#1C1C1C"/>
</svg>

<svg xmlns="http://www.w3.org/2000/svg" width="32" height="32" fill="none"><path fill="#635994" d="M3.39 18.945a1.055 1.055 0 1 0-.671 0 1.055 1.055 0 1 0 .672 0Z"/><path fill="#F9C23C" d="M23 7h-8.625v23H23a3 3 0 0 0 3-3v-8.058c.002 2.404 1.438 4.152 2.656 4.152.975 0 1.282-.688 1.313-1.032V16.75c0-1.425-.313-1.656-.875-1.656-1.995 0-2.983 2.013-3.094 3.363V10a3 3 0 0 0-3-3Z"/><path fill="#00A6ED" d="M14.5 30C20.851 30 26 24.851 26 18.5S20.851 7 14.5 7c-3.01 0-5.75 1.157-7.8 3.05l-.073 16.833A11.46 11.46 0 0 0 14.5 30Z"/><path fill="#8D65C5" d="M6.627 26.883A11.468 11.468 0 0 1 3 18.5a11.47 11.47 0 0 1 3.7-8.45 10.791 10.791 0 0 1 3.987 8.388c0 3.417-1.585 6.463-4.06 8.445Z"/><path fill="#F9C23C" d="M18 21.452v-5.874a.7.7 0 0 0-1.174-.516l-2.997 2.754a1 1 0 0 0 .01 1.482l2.995 2.676A.7.7 0 0 0 18 21.452Z"/><path fill="#1C1C1C" d="M8.172 16.516a.625.625 0 1 1-1.25 0 .625.625 0 0 1 1.25 0Z"/></svg>
